X:1
T:Title
%%score { 1 | 2 }
L:1/8
M:4/4
K:C
V:1 treble nm="Grand Piano"
V:2 bass 
V:1
 z4 z2[Q:1/4=110] [EG]2 | [Ec]2 [Ec]2 [EG]2 G2 | B2 A2 A3 A | GGGG A2 G2 | [EG]6 [EG]2 | %5
 [Ec]2 [Ec]2 [EG]2 G2 | B2 A2 A3 A | GGGG A2 B2 |[M:3/4] [Ec]6 |[M:3/8] [Ec]3 |[M:4/4] dddd c2 d2 | %11
 [Ge]2 [Ec]2 [EG]4 | G2 F2 F4 | [FA]2 [EG]2 [EG]2 [Ec]2 | dddd c2 d2 | %15
[M:19/16] [Ge]-<[Ge][Gc]-<[Gc]A/-A/-A/-A/-A/-A-<AA |[M:4/4] GGGG A2 [FB]2 |[M:3/4] [Ec]6 |] %18
V:2
 z4 z2 [C,C]2 | [C,G,]2 [C,G,]2 [C,C]2 [E,C]2 | [F,CG]2 [F,CF]2 [F,CF]3 [F,CF] | %3
 [G,CE][G,CE][G,CE][G,CE] [G,B,F]2 [G,B,F]2 | [C,C]6 [C,C]2 | [C,G,]2 [C,G,]2 [C,C]2 [E,C]2 | %6
 [F,CG]2 [F,CF]2 [F,CF]3 [F,CF] | [G,CE][G,CE][G,CE][G,CE] [G,B,F]2 [G,F]2 | %8
[M:3/4][K:bass] [C,G,]6 |[M:3/8] [C,G,]3 | %10
[M:4/4][K:treble] [G,B,G][G,B,G][G,B,G][G,B,G] [G,A,G]2 [G,B,G]2 | [C,C]2 [C,C]2 [C,C]4 | %12
 [G,CE]2 [G,B,D]2 [G,B,D]4 | [C,C]2 [C,C]2 [C,C]2 [C,G,]2 | %14
 [G,B,G][G,B,G][G,B,G][G,B,G] [G,A,G]2 [G,B,G]2 | %15
[M:19/16][K:bass] [C,C]-<[C,C][E,C]-<[E,C][F,CF]/-[F,CF]/-[F,CF]/-[F,CF]/-[F,CF]/-[F,CF]-<[F,CF][K:treble][F,CF] | %16
[M:4/4] [G,CE][G,CE][G,CE][G,CE] [G,B,F]2[K:bass] [G,,G,]2 |[M:3/4] [C,G,]6 |] %18

